libs/icons/src/svg/rows.svg

<svg width="16" height="16" viewBox="0 0 16 16" fill="none" xmlns="http://www.w3.org/2000/svg">
<g clip-path="url(#clip0_3_3748)">
<path fill-rule="evenodd" clip-rule="evenodd" d="M0.699976 1.3C0.699976 0.999997 0.999976 0.699997 1.29998 0.699997H14.6C15 0.699997 15.3 0.999997 15.3 1.4V4C15.3 4.4 15 4.7 14.6 4.7H1.29998C0.999976 4.7 0.699976 4.4 0.699976 4V1.3ZM1.99998 2V3.3H14V2H7.99998H1.99998ZM0.699976 6.7C0.699976 6.3 0.999976 6 1.29998 6H14.6C15 6 15.3 6.3 15.3 6.7V9.4C15.3 9.8 15 10.1 14.6 10.1H1.29998C0.999976 10 0.699976 9.7 0.699976 9.3V6.7ZM1.99998 7.3V8.6H14V7.3H1.99998ZM1.29998 11.3C0.899976 11.3 0.599976 11.6 0.599976 12V14.7C0.599976 15.1 0.899976 15.4 1.29998 15.4H14.6C15 15.4 15.3 15.1 15.3 14.7V12C15.3 11.6 15 11.3 14.6 11.3H1.29998ZM1.99998 14V12.7H14V14H1.99998Z" fill="#202327"/>
</g>
<defs>
<clipPath id="clip0_3_3748">
<rect width="16" height="16" fill="white"/>
</clipPath>
</defs>
</svg>

<svg xmlns="http://www.w3.org/2000/svg" viewBox="0 0 16 16" class="sageicon"><path fill-rule="evenodd" d="M.7 1.3c0-.3.3-.6.6-.6h13.3c.4 0 .7.3.7.7V4c0 .4-.3.7-.7.7H1.3C1 4.7.7 4.4.7 4V1.3ZM2 2v1.3h12V2H2ZM.7 6.7c0-.4.3-.7.6-.7h13.3c.4 0 .7.3.7.7v2.7c0 .4-.3.7-.7.7H1.3C1 10 .7 9.7.7 9.3V6.7Zm1.3.6v1.3h12V7.3H2Zm-.7 4c-.4 0-.7.3-.7.7v2.7c0 .4.3.7.7.7h13.3c.4 0 .7-.3.7-.7V12c0-.4-.3-.7-.7-.7H1.3ZM2 14v-1.3h12V14H2Z"/></svg>
